football.svg

<svg fill="currentColor" viewBox="0 0 24 24"><path d="M8.39 21 3 15.61c0 1.09.04 2.1.2 3.02.15.92.3 1.47.51 1.66.19.21.73.36 1.64.52s1.92.19 3.04.19M15.5 9.89 9.89 15.5 8.5 14.11l5.61-5.61zM3.29 13.08l7.63 7.63c2.78-.5 4.98-1.56 6.61-3.18 1.62-1.63 2.68-3.83 3.18-6.61l-7.63-7.63c-2.78.5-4.98 1.56-6.61 3.18s-2.68 3.83-3.18 6.61M15.61 3 21 8.39c0-1.09-.04-2.1-.19-3.02-.16-.92-.31-1.47-.52-1.66-.19-.21-.73-.36-1.64-.51S16.73 3 15.61 3"/></svg>

<svg  viewBox="0 0 24 24" fill="currentColor"><path  d="M8.39 21L3 15.61C3 16.7 3.04 17.71 3.2 18.63C3.35 19.55 3.5 20.1 3.71 20.29C3.9 20.5 4.44 20.65 5.35 20.81S7.27 21 8.39 21M15.5 9.89L9.89 15.5L8.5 14.11L14.11 8.5L15.5 9.89M3.29 13.08L10.92 20.71C13.7 20.21 15.9 19.15 17.53 17.53C19.15 15.9 20.21 13.7 20.71 10.92L13.08 3.29C10.3 3.79 8.1 4.85 6.47 6.47S3.79 10.3 3.29 13.08M15.61 3L21 8.39C21 7.3 20.96 6.29 20.81 5.37C20.65 4.45 20.5 3.9 20.29 3.71C20.1 3.5 19.56 3.35 18.65 3.2S16.73 3 15.61 3Z"/></svg>
